X:1
T:[ID 7-2]
T:[ID 7-2]
T:Bezeichnung standardisiert: Menuet [mit Trio] Menuet Con Trio No 2.
T:Urheber unbekannt Datum in der hier transkribierten schriftlichen Quelle: 1776 - 1791
C:Urheber unbekannt
C:Datum in der hier transkribierten schriftlichen Quelle: 1776 - 1791
L:1/8
M:3/4
K:D
V:1 treble 
V:1
 (A/G/F/E/) D2 d2 | (B/A/G/F/) E2 g2 | (e/d/c/B/) A2 c2 | d2 D2 f2 | feea (3agf |{f} e4 d2 | %6
{d} cB A2 ^G2 | A6 :: (e/d/c/B/) A2 E2 | C2 A,2 g2 | D2 (a/g/f/e/) dA | F2 D2 =c2 | B,2 (Bc)(cd) | %13
"^[sic]" dc/4d/4 c/4B/4 A2 | (3BAG F2 E2 |{E} D6 :|[M:3/4]"^Trio" !fermata!B4 c2 | .d2 .B2 .d2 | %18
 c2 ^A2 c2 |{c} B6 | d4 e2 | f2 d2 f2 | (ec)(ce)ec |{c} d6 :: f3 g f2 | f3 agf | e3 f e2 | e3 gfe | %28
 d2 B2 c2 | d2 B2 d2 | c2 ^A2 c2 |{c} B6 :| %32

